X: 35048
T: Rolling Home
R: waltz
M: 3/4
K: Cmajor
EF|G3 G^F G|A2 G2 EG|e3 cF E|D4 Bc|d3 cB A|
A2 G2 GG|B3 GA B|c4 EG|G4 EG|c4 EG|
e3 cG E|D4 Bc|d3 cB G|A2 G2 ^FG|B3 GA B|c4||

